X:1
T:Title
%%score { ( 1 3 ) | ( 2 4 ) }
L:1/8
M:4/4
K:Bb
V:1 treble nm="Grand Piano"
V:3 treble 
V:2 bass 
V:4 bass 
V:1
 z4 z[Q:1/4=88] [DF][B,D][CE] | [DF]3 [DB] [Dd][DB][EA][EG] | [EG]2 [DF]2 z [DF][B,FB][B,FA] | %3
 [B,G]3 [=B,FG] [Ge][Ge][Gc]G | A4 z FGF | [DF]3 [DB] [Dd][FB][FA]G | G2 [DF]2 z [Fd][Fd][Fd] | %7
 [CFc]3 [A,F] [DFB][DFB][C=EA][B,EG] |[M:5/8] [A,F]- [A,F]3 z |[M:3/8] FAc |[M:4/4] e3 c AABd | %11
 d2 c2 z FAc | e3 c A[CFA][B,FB][Fd] | [Af]4 z [Ge][Fd][Ec] | [DB]3 A Bcd[_Af] | %15
 [Gf]2 [Ge]2 z [Ge][GB][^Fc] | [Fd]3 [FB] [=EB][Ec][EG][_EA] | %17
[M:11/16] [DB]/-[DB]/-[DB]/-[DB]/-[DB]/-[DB]/-[DB]/-[DB]-<[DB] |] %18
V:2
 z4 z [B,,F,][B,,F,][B,,F,] | [B,,F,]3 [B,,F,] [B,,F,][B,,F,][B,,G,][B,,A,] | %2
 [B,,B,]2 [B,,B,]2 z [B,,B,]D,D, | z2 ED, [C,C][C,C][E,C][=E,C] | [F,CF]4 z [F,A,][F,A,E][F,A,E] | %5
 [B,,B,]3 [B,,F,] [B,,F,][D,B,][E,B,][G,B,E] | [B,E]2 [B,,B,]2 z [B,,B,][B,,B,][B,,B,] | %7
 A,,3 C, G,,G,,C,C, |[M:5/8] F,- F,3 z |[M:3/8] F,A,C | %10
[M:4/4][K:treble] E3 C A,[F,EF][F,DF][K:bass][F,B,F] | [F,B,F]2 [F,A,F]2 z F,A,C | %12
 E3 C A,E,D,[B,,B,] | [F,C]4 z [F,A,][F,A,][F,A,] | %14
 [B,,B,]3 [F,CE][K:treble] [G,B,D][F,A,F][B,F][K:bass][D,B,] | %15
 [E,B,]2 [E,B,]2 z [E,B,][E,B,][E,B,] | [F,B,]3 [F,D] [C,C][C,C][F,B,][F,C] | %17
[M:11/16] [B,,B,]/-[B,,B,]/-[B,,B,]/-[B,,B,]/-[B,,B,]/-[B,,B,]/-[B,,B,]/-[B,,B,]-<[B,,B,] |] %18
V:3
 x8 | x8 | x8 | F2 z2 z4 | x8 | x8 | x8 | x8 |[M:5/8] x5 |[M:3/8] x3 |[M:4/4] x8 | x8 | x8 | x8 | %14
 x8 | x8 | x8 |[M:11/16] x11/2 |] %18
V:4
 x8 | x8 | x8 | E,4 z4 | x8 | x8 | x8 | x8 |[M:5/8] x5 |[M:3/8] x3 | %10
[M:4/4][K:treble] x7[K:bass] x | x8 | x8 | x8 | x4[K:treble] x3[K:bass] x | x8 | x8 | %17
[M:11/16] x11/2 |] %18

